X: 10902
Q: "Very slow, and with much feeling."
M: 2/4
L: 1/16
K: D
|:\
f2a2 (3(agf) (3(edc) | d4 A4 | B2d2 cBAG | {G}F4 z4 |
d4 dgfe | {g}f4 z2e2 | f4 fbag | a4 agfe |\
defe dcBA | Bcdc BAGF | F4 AFGE | D4 "^D.C."z4 |]


